icons/svg/24x24/info squircle/outline.svg

<svg width="24" height="24" fill="none" xmlns="http://www.w3.org/2000/svg">
  <path fill-rule="evenodd" clip-rule="evenodd" d="M11 17h2v-6h-2v6zm2.5-8.5a1.5 1.5 0 11-3.001-.001A1.5 1.5 0 0113.5 8.5zm5.987 8.323a3.487 3.487 0 01-2.664 2.664 22.893 22.893 0 01-9.646 0 3.486 3.486 0 01-2.664-2.664 22.886 22.886 0 010-9.646 3.484 3.484 0 012.664-2.664 22.886 22.886 0 019.646 0 3.487 3.487 0 012.664 2.664 22.893 22.893 0 010 9.646zm1.954-10.069a5.47 5.47 0 00-4.195-4.195A24.711 24.711 0 0012 2c-1.8 0-3.555.192-5.245.558a5.472 5.472 0 00-4.197 4.196A24.762 24.762 0 002 12c0 1.8.192 3.555.558 5.245a5.472 5.472 0 004.196 4.196C8.445 21.808 10.2 22 12 22c1.8 0 3.555-.192 5.246-.559a5.47 5.47 0 004.195-4.196C21.808 15.555 22 13.8 22 12c0-1.8-.192-3.555-.559-5.246z" fill="#000"/>
</svg>

<svg xmlns="http://www.w3.org/2000/svg" width="24" height="24" viewBox="0 0 24 24">
  <path fill-rule="evenodd" d="M11,17 L13,17 L13,11 L11,11 L11,17 Z M13.5,8.5 C13.5,9.328 12.828,10 12,10 C11.172,10 10.5,9.328 10.5,8.5 C10.5,7.672 11.172,7 12,7 C12.828,7 13.5,7.672 13.5,8.5 L13.5,8.5 Z M19.487,16.823 C19.199,18.153 18.153,19.199 16.823,19.487 C15.248,19.827 13.626,20 12,20 C10.374,20 8.751,19.827 7.177,19.487 C5.846,19.199 4.801,18.153 4.513,16.823 C4.173,15.249 4,13.626 4,12 C4,10.373 4.173,8.751 4.513,7.177 C4.801,5.846 5.847,4.8 7.177,4.513 C8.751,4.173 10.374,4 12,4 C13.627,4 15.25,4.173 16.823,4.513 C18.153,4.801 19.199,5.847 19.487,7.177 C19.827,8.752 20,10.374 20,12 C20,13.626 19.827,15.249 19.487,16.823 L19.487,16.823 Z M21.441,6.754 C20.987,4.652 19.348,3.013 17.246,2.559 C15.555,2.192 13.8,2 12,2 C10.2,2 8.445,2.192 6.755,2.558 C4.651,3.012 3.013,4.651 2.558,6.754 C2.192,8.444 2,10.199 2,12 C2,13.8 2.192,15.555 2.558,17.245 C3.013,19.348 4.651,20.987 6.754,21.441 C8.445,21.808 10.2,22 12,22 C13.8,22 15.555,21.808 17.246,21.441 C19.348,20.987 20.987,19.348 21.441,17.245 C21.808,15.555 22,13.8 22,12 C22,10.2 21.808,8.445 21.441,6.754 L21.441,6.754 Z"/>
</svg>
